!!!ONR: No. 37
!! From Harold Courlander, "Haiti Singing"
!! Chapel Hill: University of North Carolina Press, 1939
!! Copyright University of North Carolina Press
!!!ENC: D. Huron
**kern
*clefG2
*k[]
*M2/4
=1-
16r
16g
16g
16g
=
8b
8g
16d
16e
16d
16B
=
[2d
=
8d]
8B
8d
8e
=
4a
[4g
=
8g]
8a
8a
8g
=
4b
[4g
=
8g]
8g
8b
8a
=
16g
16a
16b
16b
[4b
=
8b]
8g
8b
8a
=
8g
8a
8b
8a
=
[4g
16g]
16g
16g
16g
=
8b
8g
16d
16e
16d
16B
=
[2d
=
8d]
8B
8d
8e
=
4a
[4g
=
8g]
8b
8b
8a
=
4b
[4g
=
2g]
==
*-
